X:164
M:6/8
L:1/8
K:G
|: g/f/ | gd g/a/b/a/ | g(d d)c/B/ | c/d/e/c/ A/B/c/A/ | F(A A)B/c/ | de/f/ gf/g/ | a/g/f/e/ d/c/B/A/ | Bg A/B/c/A/ | B(G G) :|

